assets/reddit.svg

<svg xmlns="http://www.w3.org/2000/svg" width="85" height="85" viewBox="0 0 172 172"><g fill="none" fill-rule="evenodd"><circle cx="85.9" cy="85.9" r="85.5" fill="#FF4500"/><path fill="#FFF" fill-rule="nonzero" d="M142.9 85.9c0-6.9-5.6-12.5-12.5-12.5-3.4 0-6.4 1.3-8.6 3.5-8.5-6.1-20.3-10.1-33.3-10.6l5.7-26.7 18.5 3.9c.2 4.7 4.1 8.5 8.9 8.5 4.9 0 8.9-4 8.9-8.9s-4-8.9-8.9-8.9c-3.5 0-6.5 2-7.9 5L93 34.8c-.6-.1-1.2 0-1.7.3s-.8.8-1 1.4L84 66.3c-13.3.4-25.2 4.3-33.8 10.6-2.2-2.1-5.3-3.5-8.6-3.5-6.9 0-12.5 5.6-12.5 12.5 0 5.1 3 9.4 7.4 11.4-.2 1.2-.3 2.5-.3 3.8 0 19.2 22.3 34.7 49.9 34.7 27.6 0 49.9-15.5 49.9-34.7 0-1.3-.1-2.5-.3-3.7 4.1-2 7.2-6.4 7.2-11.5Zm-85.5 8.9c0-4.9 4-8.9 8.9-8.9s8.9 4 8.9 8.9-4 8.9-8.9 8.9-8.9-4-8.9-8.9Zm49.7 23.5c-6.1 6.1-17.7 6.5-21.1 6.5-3.4 0-15.1-.5-21.1-6.5-.9-.9-.9-2.4 0-3.3.9-.9 2.4-.9 3.3 0 3.8 3.8 12 5.2 17.9 5.2 5.9 0 14-1.4 17.9-5.2.9-.9 2.4-.9 3.3 0 .7 1 .7 2.4-.2 3.3Zm-1.6-14.6c-4.9 0-8.9-4-8.9-8.9s4-8.9 8.9-8.9 8.9 4 8.9 8.9-4 8.9-8.9 8.9Z"/></g></svg>

<?xml version="1.0" encoding="UTF-8"?>
<svg width="85px" height="85px" viewBox="0 0 172 172" version="1.1" xmlns="http://www.w3.org/2000/svg" xmlns:xlink="http://www.w3.org/1999/xlink">
    <!-- Generator: Sketch 52.3 (67297) - http://www.bohemiancoding.com/sketch -->
    <title>Reddit_Mark_OnWhite</title>
    <desc>Created with Sketch.</desc>
    <g id="Page-1" stroke="none" stroke-width="1" fill="none" fill-rule="evenodd">
        <g id="Reddit_Mark_OnWhite" transform="translate(-85.000000, -85.000000)">
            <g id="Artwork" transform="translate(85.000000, 85.000000)">
                <g id="Group">
                    <circle id="Oval" fill="#FF4500" cx="85.9" cy="85.9" r="85.5"/>
                    <path d="M142.9,85.9 C142.9,79 137.3,73.4 130.4,73.4 C127,73.4 124,74.7 121.8,76.9 C113.3,70.8 101.5,66.8 88.5,66.3 L94.2,39.6 L112.7,43.5 C112.9,48.2 116.8,52 121.6,52 C126.5,52 130.5,48 130.5,43.1 C130.5,38.2 126.5,34.2 121.6,34.2 C118.1,34.2 115.1,36.2 113.7,39.2 L93,34.8 C92.4,34.7 91.8,34.8 91.3,35.1 C90.8,35.4 90.5,35.9 90.3,36.5 L84,66.3 C70.7,66.7 58.8,70.6 50.2,76.9 C48,74.8 44.9,73.4 41.6,73.4 C34.7,73.4 29.1,79 29.1,85.9 C29.1,91 32.1,95.3 36.5,97.3 C36.3,98.5 36.2,99.8 36.2,101.1 C36.2,120.3 58.5,135.8 86.1,135.8 C113.7,135.8 136,120.3 136,101.1 C136,99.8 135.9,98.6 135.7,97.4 C139.8,95.4 142.9,91 142.9,85.9 Z M57.4,94.8 C57.4,89.9 61.4,85.9 66.3,85.9 C71.2,85.9 75.2,89.9 75.2,94.8 C75.2,99.7 71.2,103.7 66.3,103.7 C61.4,103.7 57.4,99.7 57.4,94.8 Z M107.1,118.3 C101,124.4 89.4,124.8 86,124.8 C82.6,124.8 70.9,124.3 64.9,118.3 C64,117.4 64,115.9 64.9,115 C65.8,114.1 67.3,114.1 68.2,115 C72,118.8 80.2,120.2 86.1,120.2 C92,120.2 100.1,118.8 104,115 C104.9,114.1 106.4,114.1 107.3,115 C108,116 108,117.4 107.1,118.3 Z M105.5,103.7 C100.6,103.7 96.6,99.7 96.6,94.8 C96.6,89.9 100.6,85.9 105.5,85.9 C110.4,85.9 114.4,89.9 114.4,94.8 C114.4,99.7 110.4,103.7 105.5,103.7 Z" id="Shape" fill="#FFFFFF" fill-rule="nonzero"/>
                </g>
            </g>
        </g>
    </g>
</svg>
